X: 100377
T: MRS. WILSON'S FANCY HORNPIPE
C: Composed by Wm. Findlay, Haywood.
R: hornpipe
B: K\"ohler's Violin Repository, v.3, 1885 p.251 #1
F: http://www.archive.org/details/klersviolinrepos03rugg
Z: 2012 John Chambers <jc:trillian.mit.edu>
M: C
L: 1/8
K: A
((3EFG) |\
(A>G)A>c (d>B)G>E | (A>c)e>g (a>g)f>e | (f>d)g>e (a>g)f>e | (d>c)B>A (G>E)F>G |
(A>G)A>c (d>B)G>E | (A>c)e>g (a>g)f>e | (f>d)g>e (a>f)e>d | c2A2 A2 :|
|: ((3uefg) |\
(a>A)(g>A) a>ec>e | (f>d)B>f (e>c)A>c | (d>b)B>d (c>e)A>c | B>eg>f e2((3efg) |
(a>A)(g>A) a>ec>e | (f>d)B>f (e>c)A>c | (d>f)e>g (a>f)e>d | c2A2 A2 :|

%%sep 2 1 500

